X:40
T:Sommer und Winter
O:Deutschland
B:
Z:
N:T-DA p 38
C:Aus Bayern und Franken / Textbearbeitung von Fritz J¨de
M:3/8
L:1/8
Q:1/4=150
K:C
G | c2 c | c2 c | cB A | G2 G |
w:Heut ist ein Freu= den= rei=_ cher Tag, dass
A2 A | c B A | A2 G | G2 ||
w:man den Som= mer ge= win= en mag.
G | c2 c | d>e f | G> A B | c2 || 
w:Ihr Her= ren mein,_ der Som= mer ist sein!


